svgs/fritz_fon.svg

<svg xmlns="http://www.w3.org/2000/svg" viewBox="0 0 192 192"><path fill="none" stroke="#000" stroke-linecap="round" stroke-linejoin="round" stroke-width="8" d="M125.829 53.348v30.717M78.73 18.969h15.359M78.73 34.328h9.968M78.73 18.969v30.717m17.211 17.19V36.159h10.045a10.32 10.32 0 0 1 10.25 10.316c0 2.724-1.079 5.34-2.998 7.272a10.324 10.324 0 0 1-7.252 3.045H95.941m10.045 0 10.045 10.084m19.347 3.662H155.7m-10.161 30.717V70.538M155.088 87.727h20.322l-20.322 30.718h20.322"/><path fill="none" stroke="#000" stroke-linecap="round" stroke-linejoin="round" stroke-width="8" d="M159.388 128.385a251.728 251.728 0 0 1-25.56-4.504 12.626 12.626 0 0 0-12.171 2.353c-2.149 2.192-8.358 8.318-14.809 14.647a116.426 116.426 0 0 1-53.149-53.19c6.289-6.451 12.171-12.618 14.565-14.768a12.615 12.615 0 0 0 2.353-12.172 251.076 251.076 0 0 1-4.503-25.601 8.107 8.107 0 0 0-4.759-6.572 8.103 8.103 0 0 0-4.147-.664q-.215.022-.426.055H22.215a6.088 6.088 0 0 0-5.518 5.559c-2.231 31.198 15.174 64.589 18.704 71v.243l.487.933a143.801 143.801 0 0 0 52.743 52.743l1.786 1.014c8.114 4.301 40.368 20.529 70.513 18.298a6.085 6.085 0 0 0 5.64-5.518v-34.526a8.115 8.115 0 0 0-6.755-9.276q-.213-.033-.426-.055ZM113.579 18.969A128.945 128.945 0 0 1 175.5 69.112m-89.949 3.147a128.94 128.94 0 0 1 45.076 36.502"/></svg>

<svg
    xmlns="http://www.w3.org/2000/svg"
    viewBox="0 0 192 192"
    id="vector">
    <path
        id="path"
        d="M 125.829 53.348 L 125.829 84.065 M 78.73 18.969 L 94.089 18.969 M 78.73 34.328 L 88.698 34.328 M 78.73 18.969 L 78.73 49.686 M 95.941 66.876 L 95.941 36.159 L 105.986 36.159 C 108.709 36.176 111.318 37.272 113.238 39.204 C 115.157 41.136 116.236 43.752 116.236 46.475 C 116.236 49.199 115.157 51.815 113.238 53.747 C 111.318 55.679 108.709 56.774 105.986 56.792 L 95.941 56.792 M 105.986 56.792 L 116.031 66.876 M 135.378 70.538 L 155.7 70.538 M 145.539 101.255 L 145.539 70.538"
        fill="none"
        stroke="#000000"
        stroke-width="8"
        stroke-linecap="round"
        stroke-linejoin="round"/>
    <path
        id="path_1"
        d="M 155.088 87.727 L 175.41 87.727 L 155.088 118.445 L 175.41 118.445"
        fill="none"
        stroke="#000000"
        stroke-width="8"
        stroke-linecap="round"
        stroke-linejoin="round"/>
    <path
        id="path_2"
        d="M 159.388 128.385 C 150.796 127.324 142.265 125.821 133.828 123.881 C 131.768 123.193 129.566 123.048 127.433 123.46 C 125.301 123.872 123.311 124.828 121.657 126.234 C 119.508 128.426 113.299 134.552 106.848 140.881 C 83.74 129.521 65.041 110.808 53.699 87.691 C 59.988 81.24 65.87 75.073 68.264 72.923 C 69.671 71.268 70.627 69.278 71.039 67.146 C 71.451 65.014 71.306 62.811 70.617 60.751 C 68.675 52.301 67.172 43.756 66.114 35.15 C 65.968 33.734 65.451 32.38 64.615 31.226 C 63.78 30.073 62.655 29.159 61.355 28.578 C 60.055 27.996 58.624 27.767 57.208 27.914 Q 56.993 27.936 56.782 27.969 L 22.215 27.969 C 20.789 28.098 19.452 28.726 18.443 29.743 C 17.434 30.759 16.816 32.1 16.697 33.528 C 14.466 64.726 31.871 98.117 35.401 104.528 L 35.401 104.771 L 35.888 105.704 C 48.522 127.616 66.718 145.812 88.631 158.447 L 90.417 159.461 C 98.531 163.762 130.785 179.99 160.93 177.759 C 162.372 177.659 163.732 177.049 164.765 176.038 C 165.798 175.027 166.438 173.681 166.57 172.241 L 166.57 137.715 C 166.904 135.59 166.38 133.417 165.113 131.678 C 163.847 129.939 161.94 128.773 159.815 128.439 Q 159.602 128.406 159.389 128.384 Z M 113.579 18.969 C 138.992 28.725 160.674 46.282 175.5 69.112 M 85.551 72.259 C 103.153 80.844 118.569 93.329 130.627 108.761"
        fill="none"
        stroke="#000000"
        stroke-width="8"
        stroke-linecap="round"
        stroke-linejoin="round"/>
</svg>
